app/img/icons/home-reload.svg

<svg width="65" height="65" viewBox="0 0 65 65" fill="none" xmlns="http://www.w3.org/2000/svg">
<path d="M21.3225 33.2783C21.3199 33.2767 21.3174 33.2754 21.3148 33.2736C21.2367 33.2218 21.1698 33.1551 21.1178 33.0773C21.1162 33.075 21.1149 33.0723 21.1133 33.0698C21.0898 33.0337 21.0696 32.9956 21.0531 32.9558L21.0498 32.9468C21.0339 32.9073 21.0218 32.8665 21.0134 32.8248L21.0125 32.818C21.0043 32.7754 21.0001 32.7321 21 32.6887V27.0691C21 26.8828 21.0742 26.7042 21.2064 26.5724C21.3386 26.4407 21.5178 26.3667 21.7047 26.3667C21.8916 26.3667 22.0709 26.4407 22.2031 26.5724C22.3352 26.7042 22.4095 26.8828 22.4095 27.0691V30.9928L25.1932 28.2181C27.2653 26.1573 30.073 25 33.0001 25C35.9273 25 38.7349 26.1573 40.8071 28.2181C40.8725 28.2833 40.9244 28.3608 40.9599 28.446C40.9953 28.5312 41.0135 28.6226 41.0135 28.7148C41.0135 28.8071 40.9953 28.8984 40.9599 28.9836C40.9245 29.0689 40.8726 29.1463 40.8071 29.2116C40.7417 29.2768 40.664 29.3285 40.5785 29.3638C40.493 29.3991 40.4014 29.4173 40.3088 29.4173C40.2163 29.4173 40.1246 29.3992 40.0391 29.3639C39.9536 29.3286 39.8759 29.2768 39.8105 29.2116C38.0028 27.4139 35.5536 26.4044 33.0001 26.4044C30.4466 26.4044 27.9973 27.4139 26.1896 29.2116L23.406 31.9862H27.3426C27.5295 31.9862 27.7087 32.0602 27.8409 32.1919C27.9731 32.3236 28.0473 32.5023 28.0473 32.6886C28.0473 32.8749 27.9731 33.0536 27.8409 33.1853C27.7087 33.3171 27.5295 33.3911 27.3426 33.3911H21.7047C21.6612 33.3909 21.6178 33.3868 21.5751 33.3787C21.5727 33.3782 21.5705 33.3781 21.5682 33.3776C21.5264 33.3693 21.4855 33.3572 21.4459 33.3414C21.4428 33.3403 21.4398 33.3394 21.4368 33.3382C21.397 33.3217 21.3587 33.3017 21.3225 33.2782V33.2783ZM44.9875 39.1822C44.9872 39.1798 44.987 39.1776 44.9865 39.1754C44.9782 39.1337 44.966 39.0929 44.9502 39.0534C44.949 39.0504 44.9482 39.0473 44.9469 39.0444C44.9304 39.0046 44.9102 38.9664 44.8867 38.9304C44.8851 38.9279 44.8838 38.9253 44.8822 38.9229C44.8302 38.8451 44.7633 38.7783 44.6852 38.7265C44.6826 38.7248 44.6801 38.7235 44.6775 38.7218C44.6413 38.6984 44.603 38.6783 44.5632 38.6619L44.5543 38.6586C44.5146 38.6428 44.4735 38.6307 44.4316 38.6223L44.4253 38.6215C44.3824 38.6134 44.3389 38.6092 44.2953 38.609H38.6574C38.4705 38.609 38.2913 38.683 38.1591 38.8147C38.0269 38.9465 37.9527 39.1251 37.9527 39.3114C37.9527 39.4977 38.0269 39.6764 38.1591 39.8081C38.2913 39.9399 38.4705 40.0139 38.6574 40.0139H42.5939L39.8104 42.7885C38.0027 44.5861 35.5534 45.5957 32.9999 45.5957C30.4464 45.5957 27.9972 44.5861 26.1895 42.7885C26.057 42.6585 25.8783 42.586 25.6924 42.5867C25.5065 42.5875 25.3284 42.6614 25.197 42.7925C25.0655 42.9235 24.9913 43.101 24.9906 43.2863C24.9898 43.4716 25.0625 43.6497 25.1929 43.7818C27.2651 45.8426 30.0728 47 32.9999 47C35.9271 47 38.7348 45.8426 40.807 43.7818L43.5905 41.0073V44.931C43.5905 45.1173 43.6648 45.296 43.7969 45.4277C43.9291 45.5595 44.1084 45.6335 44.2953 45.6335C44.4822 45.6335 44.6614 45.5595 44.7936 45.4277C44.9258 45.296 45 45.1173 45 44.931V39.3114C44.9999 39.2681 44.9957 39.2248 44.9875 39.1822Z" fill="#D90002"/>
<path d="M64 24.0569V31.2262H59.9355V61.9516C59.9355 62.4949 59.7213 63.0159 59.3402 63.4001C58.9591 63.7842 58.4422 64 57.9032 64H7.09677C6.55779 64 6.0409 63.7842 5.65978 63.4001C5.27866 63.0159 5.06452 62.4949 5.06452 61.9516V31.2262H1V24.0569L31.2908 1.40204C31.6407 1.14093 32.0646 1 32.5 1C32.9354 1 33.3593 1.14093 33.7092 1.40204L64 24.0569Z" stroke="#464646" stroke-linecap="round" stroke-linejoin="round"/>
</svg>

<svg width="65" height="65" fill="none" xmlns="http://www.w3.org/2000/svg"><path d="M21.323 33.278l-.008-.004a.707.707 0 01-.197-.197l-.005-.007a.701.701 0 01-.06-.114l-.003-.01a.693.693 0 01-.037-.121v-.007a.693.693 0 01-.013-.13V27.07a.701.701 0 01.705-.702.706.706 0 01.705.702v3.924l2.783-2.775A11.071 11.071 0 0133 25a11.07 11.07 0 017.807 3.218.704.704 0 01.153.766.702.702 0 01-.651.433.707.707 0 01-.498-.205A9.658 9.658 0 0033 26.404a9.659 9.659 0 00-6.811 2.808l-2.784 2.774h3.937a.706.706 0 01.704.703.701.701 0 01-.704.702h-5.638a.713.713 0 01-.13-.012l-.007-.001a.695.695 0 01-.122-.037l-.01-.003a.707.707 0 01-.113-.06zm23.664 5.904v-.007a.692.692 0 00-.037-.122l-.003-.009a.697.697 0 00-.06-.114l-.005-.007a.707.707 0 00-.197-.197l-.008-.004a.707.707 0 00-.114-.06l-.009-.003a.708.708 0 00-.122-.037h-.007a.718.718 0 00-.13-.013h-5.638a.706.706 0 00-.704.702.701.701 0 00.704.703h3.937l-2.784 2.774A9.659 9.659 0 0133 45.596a9.659 9.659 0 01-6.81-2.807.706.706 0 00-1.2.497c0 .186.073.364.203.496A11.072 11.072 0 0033 47a11.07 11.07 0 007.807-3.218l2.783-2.775v3.924a.701.701 0 00.705.703.706.706 0 00.705-.703v-5.62a.692.692 0 00-.013-.129z" fill="#D90002"/><path d="M64 24.057v7.17h-4.065v30.725c0 .543-.214 1.064-.595 1.448-.38.384-.898.6-1.437.6H7.097a2.024 2.024 0 01-1.437-.6 2.057 2.057 0 01-.595-1.448V31.226H1v-7.17L31.29 1.403a2.022 2.022 0 012.42 0L64 24.057z" stroke="#464646" stroke-linecap="round" stroke-linejoin="round"/></svg>
